assets/icons/utility/text_background_color.svg

<?xml version="1.0"?><svg xmlns="http://www.w3.org/2000/svg" width="52" height="52" viewBox="0 0 52 52"><path fill="#fff" d="m25.9 16l4.3 10h-9l3.9-10h0.8z m22.1-8v36c0 2.2-1.8 4-4 4h-36c-2.2 0-4-1.8-4-4v-36c0-2.2 1.8-4 4-4h36c2.2 0 4 1.8 4 4z m-5.5 32.7l-12-29.7c-0.3-0.6-0.8-1-1.5-1h-7.1c-0.6 0-1.2 0.4-1.4 1l-11 29.7c-0.2 0.6 0.2 1.3 0.9 1.3h4.1c0.6 0 1.2-0.5 1.4-1.1l3.2-8.9h13.4l3.5 8.9c0.2 0.6 0.8 1.1 1.4 1.1h4.1c0.7 0 1.2-0.7 1-1.3z"></path></svg>

<svg xmlns="http://www.w3.org/2000/svg" x="0px" y="0px"
	 width="52px" height="52px" viewBox="0 0 52 52" enable-background="new 0 0 52 52" xml:space="preserve">
<path fill="#FFFFFF" d="M25.9,16l4.3,10h-9l3.9-10H25.9z M48,8v36c0,2.2-1.8,4-4,4H8c-2.2,0-4-1.8-4-4V8c0-2.2,1.8-4,4-4h36
	C46.2,4,48,5.8,48,8z M42.5,40.7L30.5,11c-0.3-0.6-0.8-1-1.5-1h-7.1c-0.6,0-1.2,0.4-1.4,1l-11,29.7C9.3,41.3,9.7,42,10.4,42h4.1
	c0.6,0,1.2-0.5,1.4-1.1l3.2-8.9h13.4l3.5,8.9c0.2,0.6,0.8,1.1,1.4,1.1h4.1C42.2,42,42.7,41.3,42.5,40.7z"/>
</svg>
